X: 305828
M: 6/8
L: 1/8
K: G
b |\
b2g g2d | dgb b2a | a2f f2d | dfa a2g |\
b2g g2d | dgb b2a | a2f f2d | dfa "^D.C."g2 |]
c |\


